berloni/img/gray-logo.svg

<svg width="96" height="112" viewBox="0 0 96 112" fill="none" xmlns="http://www.w3.org/2000/svg">
<path d="M23.6753 3.86716C24.0886 12.9594 30.0812 29.5498 48.3543 29.786C61.9926 29.9631 73.0332 18.1845 73.0332 3.86716C73.0332 2.06642 73.0923 1.68266 72.738 0H23.8524C23.5277 1.68266 23.5572 1.12177 23.6753 3.86716Z" fill="white" fill-opacity="0.7"/>
<path d="M73.0627 82.2728C72.6495 73.1806 66.6568 56.5902 48.3838 56.354C34.7454 56.1769 23.7048 67.9555 23.7048 82.2728C23.7048 84.0736 23.6753 84.6049 24 86.2876H72.8561C73.1513 84.6049 73.1808 84.9887 73.0627 82.2728Z" fill="white" fill-opacity="0.7"/>
<path d="M81.6827 0V3.86716C81.6827 23.203 66.7749 38.8487 48.3542 38.8487C28.369 38.8487 15.0258 23.1734 15.0258 3.86716C15.0258 2.15498 14.9668 1.62362 15.1734 0H8.08856V86.2878H15.0258V82.2731C15.0258 62.9373 29.9336 47.2915 48.3542 47.2915C68.3395 47.2915 81.6827 62.9668 81.6827 82.2731C81.6827 83.9852 81.6236 84.6642 81.417 86.2878H88.5904V0H81.6827Z" fill="white" fill-opacity="0.7"/>
<path d="M22.5535 86.2579H21.4612L20.7527 84.2505C20.6937 84.0734 20.6051 83.9258 20.487 83.7782C20.369 83.6306 20.2509 83.5125 20.1033 83.3945C19.9557 83.2764 19.8081 83.2173 19.631 83.1583C19.4538 83.0993 19.2767 83.0697 19.0701 83.0697H17.2103V86.2874H16.2066V78.7598H19.5424C19.749 78.7598 19.9262 78.7598 20.1328 78.7598C20.3394 78.7598 20.487 78.7893 20.6642 78.8188C20.8413 78.8483 20.9889 78.9074 21.1365 78.9664C21.2841 79.0255 21.4317 79.114 21.5498 79.2321C21.7859 79.4387 21.9335 79.6749 22.0811 79.9701C22.1992 80.2653 22.2583 80.5605 22.2583 80.8557C22.2583 81.1214 22.2287 81.3576 22.1402 81.5937C22.0516 81.8299 21.9631 82.007 21.8155 82.1841C21.6679 82.3612 21.4907 82.5088 21.2841 82.6269C21.0775 82.745 20.8413 82.8336 20.5756 82.8926V82.9221C21.107 83.0992 21.4907 83.5421 21.7859 84.2801L22.5535 86.2579ZM17.2693 82.1546H19.5129C19.8081 82.1546 20.0738 82.1251 20.3099 82.0956C20.5461 82.0365 20.7232 81.9775 20.8708 81.8594C21.0184 81.7413 21.107 81.6232 21.1955 81.4461C21.2546 81.269 21.2841 81.0623 21.2841 80.8262C21.2841 80.3834 21.1365 80.0587 20.8708 79.8815C20.6051 79.6749 20.1918 79.5863 19.6605 79.5863H17.2693V82.1546Z" fill="white" fill-opacity="0.7"/>
<path d="M12.7528 105.919C12.7528 107.572 12.2214 108.871 11.1882 109.786C10.155 110.701 8.59041 111.144 6.49447 111.144H0V93.4614H6.34687C7.23247 93.4614 8.02952 93.5795 8.73801 93.7862C9.4465 93.9928 10.0664 94.288 10.5387 94.7013C11.0406 95.085 11.4244 95.5574 11.6605 96.1183C11.9262 96.6791 12.0443 97.2991 12.0443 98.0075C12.0443 98.8932 11.8376 99.6607 11.4539 100.281C11.0406 100.93 10.4502 101.432 9.62362 101.845C10.155 101.993 10.5978 102.199 10.9816 102.465C11.3653 102.731 11.69 103.026 11.9557 103.38C12.2214 103.734 12.3985 104.118 12.5166 104.561C12.6937 104.974 12.7528 105.447 12.7528 105.919ZM3.18819 100.694H6.22878C7.17343 100.694 7.8524 100.517 8.29521 100.192C8.73801 99.8378 8.97417 99.2769 8.97417 98.4208C8.97417 98.0666 8.91513 97.7419 8.82657 97.4467C8.73801 97.181 8.56089 96.9448 8.32473 96.7677C8.08856 96.5906 7.79336 96.443 7.43912 96.3544C7.08487 96.2659 6.61255 96.2068 6.08118 96.2068H3.18819V100.694ZM3.18819 108.399H6.34687C7.4096 108.399 8.20664 108.192 8.70849 107.779C9.23985 107.365 9.47602 106.746 9.47602 105.919C9.47602 105.476 9.41698 105.122 9.2989 104.797C9.18081 104.472 9.00369 104.236 8.73801 104.03C8.47233 103.823 8.1476 103.675 7.7048 103.587C7.26199 103.498 6.76015 103.439 6.14022 103.439H3.18819V108.399Z" fill="white" fill-opacity="0.7"/>
<path d="M27.7196 111.144H14.9668V93.4614H27.3653V96.3544H18.155V100.664H26.7454V103.557H18.155V108.251H27.7196V111.144Z" fill="white" fill-opacity="0.7"/>
<path d="M44.2804 111.144H40.8561L39.3801 106.746C39.262 106.362 39.0849 106.008 38.8782 105.683C38.6716 105.358 38.4354 105.092 38.1697 104.856C37.9041 104.62 37.6089 104.443 37.2841 104.325C36.9594 104.207 36.6052 104.148 36.2214 104.148H33.0922V111.144H29.9041V93.4614H37.3432C37.9631 93.4614 38.5535 93.4909 39.0849 93.55C39.6162 93.609 40.1181 93.6976 40.5609 93.8452C41.0037 93.9928 41.417 94.1994 41.7712 94.4651C42.1255 94.7308 42.4207 95.0555 42.6863 95.4983C43.2177 96.3249 43.4834 97.3286 43.4834 98.5094C43.4834 99.7493 43.1587 100.753 42.5387 101.52C41.9188 102.288 41.0332 102.819 39.8819 103.085V103.115C40.5314 103.351 41.0627 103.734 41.476 104.295C41.8893 104.856 42.2731 105.565 42.5978 106.48L44.2804 111.144ZM33.1218 101.373H37.0184C37.5793 101.373 38.0812 101.314 38.4649 101.225C38.8782 101.137 39.2029 100.96 39.4686 100.753C39.7343 100.546 39.9114 100.251 40.0295 99.9264C40.1476 99.5721 40.2066 99.1884 40.2066 98.6865C40.2066 97.8009 39.9705 97.1515 39.4686 96.7382C38.9668 96.3249 38.2288 96.1183 37.2546 96.1183H33.0922V101.373H33.1218Z" fill="white" fill-opacity="0.7"/>
<path d="M56.9151 111.144H46.0812V93.4614H49.2694V108.192H56.9151V111.144Z" fill="white" fill-opacity="0.7"/>
<path d="M66.0959 93.166C67.3062 93.166 68.3985 93.3727 69.3727 93.8155C70.3468 94.2583 71.2029 94.8782 71.8819 95.6752C72.5904 96.4723 73.1217 97.4465 73.5055 98.5682C73.8893 99.69 74.0664 100.93 74.0664 102.317C74.0664 103.675 73.8893 104.915 73.5055 106.037C73.1217 107.159 72.5904 108.133 71.9114 108.93C71.2324 109.727 70.3763 110.347 69.4022 110.79C68.428 111.232 67.3062 111.439 66.0959 111.439C64.8856 111.439 63.7638 111.232 62.7896 110.79C61.8155 110.347 60.9594 109.727 60.2509 108.93C59.5424 108.133 59.0111 107.159 58.6273 106.037C58.2435 104.915 58.0664 103.675 58.0664 102.317C58.0664 100.93 58.2435 99.69 58.6273 98.5682C59.0111 97.4465 59.5424 96.4723 60.2509 95.6752C60.9594 94.8782 61.786 94.2583 62.7896 93.8155C63.7638 93.3727 64.8856 93.166 66.0959 93.166ZM66.0664 108.576C66.8044 108.576 67.4834 108.428 68.0442 108.103C68.6347 107.808 69.1365 107.365 69.5203 106.804C69.9335 106.243 70.2287 105.594 70.4649 104.827C70.6715 104.059 70.7896 103.232 70.7896 102.317C70.7896 101.402 70.6715 100.546 70.4649 99.7786C70.2583 99.011 69.9335 98.3616 69.5498 97.8007C69.1365 97.2398 68.6642 96.8265 68.0738 96.5018C67.4834 96.2066 66.8339 96.0295 66.0959 96.0295C65.3579 96.0295 64.6789 96.1771 64.0885 96.4723C63.4981 96.7675 62.9963 97.2103 62.583 97.7712C62.1697 98.3321 61.845 98.9815 61.6384 99.749C61.4317 100.517 61.3136 101.373 61.3136 102.288C61.3136 103.203 61.4317 104.029 61.6384 104.797C61.845 105.565 62.1697 106.214 62.583 106.775C62.9963 107.336 63.4981 107.749 64.059 108.074C64.6199 108.398 65.3579 108.576 66.0664 108.576Z" fill="white" fill-opacity="0.7"/>
<path d="M89.8893 111.144H86.6716L79.203 98.4208L79.2915 104.709V111.144H76.2805V93.4614H79.5277L86.9963 106.185L86.9078 99.8968V93.4614H89.9188V111.144H89.8893Z" fill="white" fill-opacity="0.7"/>
<path d="M95.38 111.144H93.166V93.4614H95.38V111.144Z" fill="white" fill-opacity="0.7"/>
</svg>

<svg width="96" height="112" fill="none" xmlns="http://www.w3.org/2000/svg"><path d="M23.675 3.867c.414 9.092 6.406 25.683 24.68 25.919 13.638.177 24.678-11.602 24.678-25.919 0-1.8.06-2.184-.295-3.867H23.852c-.324 1.683-.295 1.122-.177 3.867zM73.063 82.273c-.413-9.092-6.406-25.683-24.68-25.919-13.638-.177-24.678 11.602-24.678 25.919 0 1.8-.03 2.332.295 4.015h48.856c.295-1.683.325-1.3.207-4.015z" fill="#fff" fill-opacity=".7"/><path d="M81.683 0v3.867c0 19.336-14.908 34.982-33.329 34.982-19.985 0-33.328-15.676-33.328-34.982 0-1.712-.06-2.243.147-3.867H8.09v86.288h6.937v-4.015c0-19.336 14.908-34.981 33.328-34.981 19.986 0 33.329 15.675 33.329 34.981 0 1.712-.06 2.391-.266 4.015h7.173V0h-6.907z" fill="#fff" fill-opacity=".7"/><path d="M22.553 86.258h-1.092l-.708-2.007a1.496 1.496 0 0 0-.266-.473 2.353 2.353 0 0 0-.384-.384 1.42 1.42 0 0 0-.472-.236 1.72 1.72 0 0 0-.56-.088h-1.86v3.217h-1.004V78.76h3.925c.207 0 .355.03.532.059.177.03.325.088.473.147.147.06.295.148.413.266.236.207.383.443.531.738.118.295.177.59.177.886 0 .265-.03.502-.118.738a1.901 1.901 0 0 1-.325.59 1.935 1.935 0 0 1-.53.443 2.52 2.52 0 0 1-.71.266v.03c.532.176.916.62 1.21 1.357l.768 1.978zm-5.284-4.103h2.244c.295 0 .56-.03.797-.06.236-.058.413-.117.56-.236.148-.118.237-.236.325-.413a1.96 1.96 0 0 0 .09-.62c0-.443-.148-.767-.414-.944-.266-.207-.68-.296-1.21-.296h-2.392v2.569zM12.753 105.919c0 1.653-.532 2.952-1.565 3.867s-2.598 1.358-4.694 1.358H0V93.461h6.347c.885 0 1.683.118 2.391.325.709.207 1.328.502 1.8.915.503.384.886.856 1.123 1.417.265.561.383 1.181.383 1.89 0 .885-.206 1.653-.59 2.273-.413.649-1.004 1.151-1.83 1.564.531.148.974.354 1.358.62.383.266.708.561.974.915.265.354.443.738.56 1.181.178.413.237.886.237 1.358zm-9.565-5.225h3.04c.945 0 1.624-.177 2.067-.502.443-.354.68-.915.68-1.771a3.37 3.37 0 0 0-.148-.974 1.419 1.419 0 0 0-.502-.68 2.464 2.464 0 0 0-.886-.413 5.778 5.778 0 0 0-1.358-.147H3.188v4.487zm0 7.705h3.159c1.063 0 1.86-.207 2.361-.62.532-.414.768-1.033.768-1.86 0-.443-.059-.797-.177-1.122a1.625 1.625 0 0 0-.561-.767c-.266-.207-.59-.355-1.033-.443a7.79 7.79 0 0 0-1.565-.148H3.188v4.96zM27.72 111.144H14.967V93.461h12.398v2.893h-9.21v4.31h8.59v2.893h-8.59v4.694h9.565v2.893zM44.28 111.144h-3.424l-1.476-4.398a4.393 4.393 0 0 0-.502-1.063 3.864 3.864 0 0 0-.708-.827 2.724 2.724 0 0 0-.886-.531 3.09 3.09 0 0 0-1.063-.177h-3.129v6.996h-3.188V93.461h7.44c.62 0 1.21.03 1.74.089.532.059 1.034.148 1.477.295.443.148.856.354 1.21.62.355.266.65.59.915 1.033.532.827.797 1.83.797 3.011 0 1.24-.324 2.244-.944 3.011-.62.768-1.506 1.299-2.657 1.565v.03c.65.236 1.18.619 1.594 1.18.413.561.797 1.27 1.122 2.185l1.682 4.664zm-11.158-9.771h3.896c.561 0 1.063-.059 1.447-.148a2.43 2.43 0 0 0 1.004-.472c.265-.207.442-.502.56-.827.119-.354.178-.738.178-1.24 0-.885-.236-1.535-.738-1.948-.502-.413-1.24-.62-2.214-.62h-4.163v5.255h.03zM56.915 111.144H46.081V93.461h3.188v14.731h7.646v2.952zM66.096 93.166c1.21 0 2.302.207 3.277.65.974.442 1.83 1.062 2.509 1.86.708.796 1.24 1.77 1.623 2.892.384 1.122.561 2.362.561 3.749 0 1.358-.177 2.598-.56 3.72-.384 1.122-.916 2.096-1.595 2.893-.679.797-1.535 1.417-2.509 1.86-.974.442-2.096.649-3.306.649s-2.332-.207-3.306-.649a7.544 7.544 0 0 1-2.54-1.86c-.708-.797-1.239-1.771-1.623-2.893-.384-1.122-.56-2.362-.56-3.72 0-1.387.176-2.627.56-3.749.384-1.121.915-2.096 1.624-2.893a7.26 7.26 0 0 1 2.539-1.86c.974-.442 2.096-.649 3.306-.649zm-.03 15.41c.738 0 1.417-.148 1.978-.473a3.896 3.896 0 0 0 1.476-1.299c.413-.561.709-1.21.945-1.977a9.573 9.573 0 0 0 .325-2.51 9.79 9.79 0 0 0-.325-2.538 6.433 6.433 0 0 0-.915-1.978 4.433 4.433 0 0 0-1.476-1.3 4.346 4.346 0 0 0-1.978-.472c-.738 0-1.417.148-2.008.443-.59.296-1.092.738-1.505 1.3a5.857 5.857 0 0 0-.945 1.977 9.794 9.794 0 0 0-.324 2.539c0 .915.118 1.741.324 2.509.207.768.532 1.417.945 1.978.413.561.915.974 1.476 1.299.56.324 1.299.502 2.007.502zM89.89 111.144h-3.218l-7.469-12.723.088 6.288v6.435h-3.01V93.461h3.247l7.468 12.724-.088-6.288V93.46h3.01v17.683h-.029zM95.38 111.144h-2.214V93.461h2.214v17.683z" fill="#fff" fill-opacity=".7"/></svg>
